imgs/01-07-click.svg

<svg xmlns="http://www.w3.org/2000/svg" width="640" height="30" viewBox="0 -5 640 30" enable-background="new 0 -5 640 30"><g fill="#FDF870"><path d="M60.656 10.777c2.113-.092 3.45-1.357 4.011-3.797l1.682.422c-.82 3.049-2.696 4.596-5.628 4.643-3.709-.229-5.671-2.555-5.887-6.958.172-4.781 2.177-7.289 6.016-7.522 2.458.094 4.205 1.454 5.24 4.078l-1.617.42c-.776-2.015-2.028-3.046-3.752-3.094-2.631.281-4.076 2.274-4.334 5.977.171 3.607 1.594 5.552 4.269 5.831zm16.675 1.057v-1.268h-6.663v-12.793h-1.488v14.061h8.151zm3.157 0h1.423v-14.061h-1.423v14.061zm10.598-1.057c2.111-.092 3.449-1.357 4.012-3.797l1.682.422c-.818 3.049-2.695 4.596-5.629 4.643-3.709-.229-5.67-2.555-5.885-6.958.17-4.781 2.176-7.289 6.016-7.522 2.458.094 4.203 1.454 5.238 4.078l-1.617.421c-.775-2.015-2.027-3.046-3.752-3.094-2.631.281-4.075 2.274-4.334 5.977.17 3.606 1.592 5.551 4.269 5.83zm17.257 1.057l-4.658-7.245-2.588 2.812v4.437h-1.486v-14.065h1.486v7.665l6.922-7.665h2.07l-5.498 5.836 5.758 8.225h-2.006zm6.52-.072v-2.039h-2.005v2.039h2.005zm6.002 0v-2.039h-2.005v2.039h2.005zm6.006 0v-2.039h-2.006v2.039h2.006zM38.994 12.24l-10.504-14h21.01z"/></g></svg>

<?xml version="1.0" encoding="utf-8"?>
<!-- Generator: Adobe Illustrator 16.0.0, SVG Export Plug-In . SVG Version: 6.00 Build 0)  -->
<!DOCTYPE svg PUBLIC "-//W3C//DTD SVG 1.1//EN" "http://www.w3.org/Graphics/SVG/1.1/DTD/svg11.dtd">
<svg version="1.1" id="图层_1" xmlns="http://www.w3.org/2000/svg" xmlns:xlink="http://www.w3.org/1999/xlink" x="0px" y="0px"
	 width="640px" height="30px" viewBox="0 -5 640 30" enable-background="new 0 -5 640 30" xml:space="preserve">
<g>
	<path fill="#FDF870" d="M60.656,10.777c2.113-0.092,3.45-1.357,4.011-3.797l1.682,0.422c-0.82,3.049-2.696,4.596-5.628,4.643
		c-3.709-0.229-5.671-2.555-5.887-6.958c0.172-4.781,2.177-7.289,6.016-7.522c2.458,0.094,4.205,1.454,5.24,4.078l-1.617,0.42
		c-0.776-2.015-2.028-3.046-3.752-3.094c-2.631,0.281-4.076,2.274-4.334,5.977C56.558,8.553,57.981,10.498,60.656,10.777
		L60.656,10.777z M77.331,11.834v-1.268h-6.663V-2.227H69.18v14.061H77.331L77.331,11.834z M80.488,11.834h1.423V-2.227h-1.423
		V11.834z M91.086,10.777c2.111-0.092,3.449-1.357,4.012-3.797l1.682,0.422c-0.818,3.049-2.695,4.596-5.629,4.643
		c-3.709-0.229-5.67-2.555-5.885-6.958c0.17-4.781,2.176-7.289,6.016-7.522c2.458,0.094,4.203,1.454,5.238,4.078l-1.617,0.421
		c-0.775-2.015-2.027-3.046-3.752-3.094c-2.631,0.281-4.075,2.274-4.334,5.977C86.987,8.553,88.409,10.498,91.086,10.777
		L91.086,10.777z M108.343,11.834l-4.658-7.245l-2.588,2.812v4.437h-1.486V-2.227h1.486v7.665l6.922-7.665h2.07l-5.498,5.836
		l5.758,8.225H108.343L108.343,11.834z M114.863,11.762V9.723h-2.005v2.039H114.863z M120.865,11.762V9.723h-2.005v2.039H120.865z
		 M126.871,11.762V9.723h-2.006v2.039H126.871z"/>
	<polygon fill="#FDF870" points="38.994,12.24 28.49,-1.76 49.5,-1.76 	"/>
</g>
</svg>
